Numix-GalliumOS/48/categories/applications-interfacedesign.svg

<?xml version="1.0" encoding="UTF-8" standalone="no"?>
<svg
   xmlns:dc="http://purl.org/dc/elements/1.1/"
   xmlns:cc="http://creativecommons.org/ns#"
   xmlns:rdf="http://www.w3.org/1999/02/22-rdf-syntax-ns#"
   xmlns:svg="http://www.w3.org/2000/svg"
   xmlns="http://www.w3.org/2000/svg"
   xmlns:sodipodi="http://sodipodi.sourceforge.net/DTD/sodipodi-0.dtd"
   xmlns:inkscape="http://www.inkscape.org/namespaces/inkscape"
   width="48"
   height="48"
   viewBox="0 0 38.4 38.4"
   id="svg2"
   version="1.1"
   inkscape:version="0.91 r"
   sodipodi:docname="applications-interfacedesign.svg">
  <metadata
     id="metadata54">
    <rdf:RDF>
      <cc:Work
         rdf:about="">
        <dc:format>image/svg+xml</dc:format>
        <dc:type
           rdf:resource="http://purl.org/dc/dcmitype/StillImage" />
        <dc:title />
      </cc:Work>
    </rdf:RDF>
  </metadata>
  <defs
     id="defs52" />
  <sodipodi:namedview
     pagecolor="#ffffff"
     bordercolor="#666666"
     borderopacity="1"
     objecttolerance="10"
     gridtolerance="10"
     guidetolerance="10"
     inkscape:pageopacity="0"
     inkscape:pageshadow="2"
     inkscape:window-width="1680"
     inkscape:window-height="1026"
     id="namedview50"
     showgrid="true"
     inkscape:zoom="14.052817"
     inkscape:cx="14.324628"
     inkscape:cy="19.907205"
     inkscape:window-x="0"
     inkscape:window-y="24"
     inkscape:window-maximized="1"
     inkscape:current-layer="svg2">
    <inkscape:grid
       type="xygrid"
       id="grid4182" />
  </sodipodi:namedview>
  <path
     style="fill:none;stroke:#89b585;stroke-width:1.60000002;stroke-linecap:round;stroke-miterlimit:4;stroke-dasharray:none"
     d="M 5.1553608,4.8 33.24464,4.8 C 33.442063,4.8 33.6,4.957938 33.6,5.1553607 l 0,28.0892793 C 33.6,33.442063 33.442063,33.6 33.24464,33.6 l -28.0892792,0 c -0.1974227,0 -0.3553607,-0.157937 -0.3553607,-0.35536 l 0,-28.0892793 C 4.8000001,4.957938 4.957938,4.8 5.1553608,4.8 Z"
     id="path8"
     inkscape:connector-curvature="0" />
  <path
     style="fill:none;stroke:#89b585;stroke-width:0.80000001;stroke-linecap:round;stroke-linejoin:round;stroke-miterlimit:4;stroke-dasharray:none"
     d="m 9.2,17.200002 4.8,0 L 14,22 9.2,22 Z"
     id="path12"
     inkscape:connector-curvature="0" />
  <path
     style="fill:none;stroke:#89b585;stroke-width:0.79999995;stroke-linecap:round;stroke-linejoin:round;stroke-miterlimit:4;stroke-dasharray:none"
     d="M 29.2,19.602005 C 29.2,20.925313 28.125312,22 26.797996,22 25.474687,22 24.4,20.925313 24.4,19.602005 c 0,-1.327318 1.074687,-2.402004 2.397996,-2.402004 1.327316,0 2.402004,1.074686 2.402004,2.402004 z"
     id="path14"
     inkscape:connector-curvature="0" />
  <path
     style="fill:none;stroke:#89b585;stroke-width:0.79999995;stroke-linecap:round;stroke-linejoin:round;stroke-miterlimit:4;stroke-dasharray:none"
     d="m 10.292303,9.1999999 17.819426,0 c 0.604595,0 1.08827,0.4403361 1.08827,0.9915971 l 0,2.016806 c 0,0.55126 -0.483675,0.991597 -1.08827,0.991597 l -17.819426,0 c -0.6045961,0 -1.0923025,-0.440337 -1.0923025,-0.991597 l 0,-2.016806 c 0,-0.551261 0.4877064,-0.9915971 1.0923025,-0.9915971 z"
     id="path16"
     inkscape:connector-curvature="0" />
  <path
     style="fill:#89b585;fill-rule:evenodd"
     d="M 28,19.600001 C 28,20.260403 27.46353,20.8 26.797984,20.8 26.13647,20.8 25.6,20.260403 25.6,19.600001 25.6,18.939598 26.13647,18.4 26.797984,18.4 27.46353,18.4 28,18.939598 28,19.600001 Z"
     id="path18"
     inkscape:connector-curvature="0" />
  <path
     style="fill:none;stroke:#89b585;stroke-width:0.80000001;stroke-linecap:round;stroke-linejoin:round;stroke-miterlimit:4;stroke-dasharray:none"
     d="m 22.8,9.200001 0,3.999999 4.995712,0 C 28.578562,13.2 29.2,12.652102 29.2,11.966387 l 0,-1.522689 c 0,-0.685714 -0.621438,-1.243697 -1.404288,-1.243697 z"
     id="path24"
     inkscape:connector-curvature="0" />
  <path
     style="fill:none;stroke:#89b585;stroke-width:0.80000001;stroke-linecap:round;stroke-linejoin:round;stroke-miterlimit:4;stroke-dasharray:none"
     d="m 9.2,24.399999 4.8,0 0,4.800001 -4.8,0 z"
     id="path26"
     inkscape:connector-curvature="0" />
  <path
     style="fill:none;stroke:#89b585;stroke-width:0.79999995;stroke-linecap:round;stroke-linejoin:round;stroke-miterlimit:4;stroke-dasharray:none"
     d="M 29.2,26.797997 C 29.2,28.125314 28.125312,29.2 26.797996,29.2 25.474687,29.2 24.4,28.125314 24.4,26.797997 24.4,25.474689 25.474687,24.4 26.797996,24.4 28.125312,24.4 29.2,25.474689 29.2,26.797997 Z"
     id="path30"
     inkscape:connector-curvature="0" />
  <path
     style="fill:#89b585"
     inkscape:connector-curvature="0"
     id="path34"
     d="m 10.4,18.4 0.8,0 0,0.8 -0.8,0 z" />
  <path
     style="fill:#89b585"
     inkscape:connector-curvature="0"
     id="path36"
     d="m 10.4,20.000001 0.8,0 0,0.799999 -0.8,0 z" />
  <path
     style="fill:#89b585"
     inkscape:connector-curvature="0"
     id="path38"
     d="m 12,20 0.8,0 0,0.8 -0.8,0 z" />
  <path
     style="fill:#89b585"
     inkscape:connector-curvature="0"
     id="path40"
     d="m 12,18.399999 0.8,0 0,0.800001 -0.8,0 z" />
  <path
     style="fill:#89b585"
     inkscape:connector-curvature="0"
     id="path42"
     d="m 11.2,19.2 0.8,0 0,0.8 -0.8,0 z" />
  <path
     style="fill:#89b585"
     inkscape:connector-curvature="0"
     id="path44"
     d="m 24.8,10.4 0.8,0 0,0.8 -0.8,0 z" />
  <path
     style="fill:#89b585"
     inkscape:connector-curvature="0"
     id="path46"
     d="m 26.4,10.4 0.8,0 0,0.8 -0.8,0 z" />
  <path
     style="fill:#89b585"
     inkscape:connector-curvature="0"
     id="path48"
     d="m 25.6,11.2 0.8,0 0,0.8 -0.8,0 z" />
</svg>

<svg xmlns="http://www.w3.org/2000/svg" width="48" height="48" viewBox="0 0 38.4 38.4">
 <path d="m 5.155 4.8 28.09 0 c 0.197 0 0.355 0.158 0.355 0.355 l 0 28.09 c 0 0.197 -0.158 0.355 -0.355 0.355 l -28.09 0 c -0.197 0 -0.355 -0.158 -0.355 -0.355 l 0 -28.09 c 0 -0.197 0.158 -0.355 0.355 -0.355" style="stroke-dasharray:none;fill:none;stroke-miterlimit:4;stroke:#89b585;stroke-linecap:round;stroke-width:1.6"/>
 <path d="m 9.2 17.2 4.8 0 l 0 4.8 -4.8 0" style="stroke-dasharray:none;fill:none;stroke-miterlimit:4;stroke:#89b585;stroke-linecap:round;stroke-linejoin:round;stroke-width:0.8"/>
 <path d="m 29.2 19.602 c 0 1.323 -1.075 2.398 -2.402 2.398 -1.323 0 -2.398 -1.075 -2.398 -2.398 c 0 -1.327 1.075 -2.402 2.398 -2.402 1.327 0 2.402 1.075 2.402 2.402 z" style="stroke-dasharray:none;fill:none;stroke-miterlimit:4;stroke:#89b585;stroke-linecap:round;stroke-linejoin:round;stroke-width:0.8"/>
 <path d="m 10.292 9.2 17.819 0 c 0.605 0 1.088 0.44 1.088 0.992 l 0 2.02 c 0 0.551 -0.484 0.992 -1.088 0.992 l -17.819 0 c -0.605 0 -1.092 -0.44 -1.092 -0.992 l 0 -2.02 c 0 -0.551 0.488 -0.992 1.092 -0.992 z" style="stroke-dasharray:none;fill:none;stroke-miterlimit:4;stroke:#89b585;stroke-linecap:round;stroke-linejoin:round;stroke-width:0.8"/>
 <path d="m 28 19.6 c 0 0.66 -0.536 1.2 -1.202 1.2 -0.662 0 -1.198 -0.54 -1.198 -1.2 0 -0.66 0.536 -1.2 1.198 -1.2 0.666 0 1.202 0.54 1.202 1.2" style="fill:#89b585;fill-rule:evenodd"/>
 <path d="m 22.8 9.2 0 4 4.996 0 c 0.783 0 1.404 -0.548 1.404 -1.234 l 0 -1.523 c 0 -0.686 -0.621 -1.244 -1.404 -1.244 z" style="stroke-dasharray:none;fill:none;stroke-miterlimit:4;stroke:#89b585;stroke-linecap:round;stroke-linejoin:round;stroke-width:0.8"/>
 <path d="m 9.2 24.4 4.8 0 0 4.8 -4.8 0 z" style="stroke-dasharray:none;fill:none;stroke-miterlimit:4;stroke:#89b585;stroke-linecap:round;stroke-linejoin:round;stroke-width:0.8"/>
 <path d="m 29.2 26.798 c 0 1.327 -1.075 2.402 -2.402 2.402 -1.323 0 -2.398 -1.075 -2.398 -2.402 0 -1.323 1.075 -2.398 2.398 -2.398 1.327 0 2.402 1.075 2.402 2.398" style="stroke-dasharray:none;fill:none;stroke-miterlimit:4;stroke:#89b585;stroke-linecap:round;stroke-linejoin:round;stroke-width:0.8"/>
 <path d="m 10.4 18.4 0.8 0 0 0.8 -0.8 0 z" style="fill:#89b585"/>
 <path d="m 10.4 20 0.8 0 0 0.8 -0.8 0 z" style="fill:#89b585"/>
 <path d="m 12 20 0.8 0 0 0.8 -0.8 0 z" style="fill:#89b585"/>
 <path d="m 12 18.4 0.8 0 0 0.8 -0.8 0 z" style="fill:#89b585"/>
 <path d="m 11.2 19.2 0.8 0 0 0.8 -0.8 0 z" style="fill:#89b585"/>
 <path d="m 24.8 10.4 0.8 0 0 0.8 -0.8 0 z" style="fill:#89b585"/>
 <path d="m 26.4 10.4 0.8 0 0 0.8 -0.8 0 z" style="fill:#89b585"/>
 <path d="m 25.6 11.2 0.8 0 0 0.8 -0.8 0 z" style="fill:#89b585"/>
</svg>
